!!!SOCIAL_FUNCTION:	rudimentary (?)
!!!PDT:	1922
!!!OTL: Rudimentary Song C
!!!REG: Southwest
!!!LANG: Non-Tone
!!!LING_GROUP: Uto-Aztecan
**kern
*staff1
=1-
*clefG2
*k[b-e-a-]
*M3/4
4g/
4e-/
12f/L
12e-/
12f/J
=2
4g/
8c/L
16B-/L
16G/JJ
16B-/LK
8.G/J
=3
8.B-/L
16G/Jk
8G/L
8G/J
4G/
=4||
*M2/4
16B-/LK
8.G/J
8.G/L
16c/Jk
=5
4c/
8c/L
8c/J
=6
8.B-/L
16G/Jk
8G/L
8G/J
=7
2G/
=8
4c/
4B-/
=9
4B-/
12G/L
12G/
12c/J
=10
8.B-/L
16G/Jk
8.B-/L
16G/Jk
=11
8G/L
8G/J
12c/L
12B-/
12B-/J
=12
8.B-/L
16G/Jk
4G/
=13
2G/
=14
2G/
==
*-
